svg/device/battery_charging_fill.svg

<?xml version="1.0" encoding="UTF-8"?>
<svg width="24px" height="24px" viewBox="0 0 24 24" version="1.1" xmlns="http://www.w3.org/2000/svg" xmlns:xlink="http://www.w3.org/1999/xlink">
    <title>battery_charging_fill</title>
    <g id="页面-1" stroke="none" stroke-width="1" fill="none" fill-rule="evenodd">
        <g id="Device" transform="translate(-96.000000, -144.000000)" fill-rule="nonzero">
            <g id="battery_charging_fill" transform="translate(96.000000, 144.000000)">
                 <path d="M24,0 L24,24 L0,24 L0,0 L24,0 Z M12.5934901,23.257841 L12.5819402,23.2595131 L12.5108777,23.2950439 L12.4918791,23.2987469 L12.4918791,23.2987469 L12.4767152,23.2950439 L12.4056548,23.2595131 C12.3958229,23.2563662 12.3870493,23.2590235 12.3821421,23.2649074 L12.3780323,23.275831 L12.360941,23.7031097 L12.3658947,23.7234994 L12.3769048,23.7357139 L12.4804777,23.8096931 L12.4953491,23.8136134 L12.4953491,23.8136134 L12.5071152,23.8096931 L12.6106902,23.7357139 L12.6232938,23.7196733 L12.6232938,23.7196733 L12.6266527,23.7031097 L12.609561,23.275831 C12.6075724,23.2657013 12.6010112,23.2592993 12.5934901,23.257841 L12.5934901,23.257841 Z M12.8583906,23.1452862 L12.8445485,23.1473072 L12.6598443,23.2396597 L12.6498822,23.2499052 L12.6498822,23.2499052 L12.6471943,23.2611114 L12.6650943,23.6906389 L12.6699349,23.7034178 L12.6699349,23.7034178 L12.678386,23.7104931 L12.8793402,23.8032389 C12.8914285,23.8068999 12.9022333,23.8029875 12.9078286,23.7952264 L12.9118235,23.7811639 L12.8776777,23.1665331 C12.8752882,23.1545897 12.8674102,23.1470016 12.8583906,23.1452862 L12.8583906,23.1452862 Z M12.1430473,23.1473072 C12.1332178,23.1423925 12.1221763,23.1452606 12.1156365,23.1525954 L12.1099173,23.1665331 L12.0757714,23.7811639 C12.0751323,23.7926639 12.0828099,23.8018602 12.0926481,23.8045676 L12.108256,23.8032389 L12.3092106,23.7104931 L12.3186497,23.7024347 L12.3186497,23.7024347 L12.3225043,23.6906389 L12.340401,23.2611114 L12.337245,23.2485176 L12.337245,23.2485176 L12.3277531,23.2396597 L12.1430473,23.1473072 Z" id="MingCute" fill-rule="nonzero"></path>
                <path d="M18,6.00003 C19.1046,6.00003 20,6.89546 20,8.00003 L20,9.00003 C21.1046,9.00003 22,9.89546 22,11 L22,13 C22,14.1046 21.1046,15 20,15 L20,16 C20,17.1046 19.1046,18 18,18 L12.8986,18 L15.5634,13.5587 C16.5485,11.9168 15.7596,9.90919 14.1581,9.23406 L14.5725,8.54352 C15.0513,7.74541 15.1158,6.81413 14.8285,6.00003 L18,6.00003 Z M9.10143,6.00003 L6.43661,10.4414 C5.484337,12.0284733 6.18980582,13.9574599 7.68445191,14.6941109 L7.84185,14.766 L7.42752,15.4565 C6.98549538,16.1932077 6.89655195,17.0434112 7.11146097,17.8101643 L7.17149,18 L4,18 C2.94563773,18 2.08183483,17.18415 2.00548573,16.1492661 L2,16 L2,8.00003 C2,6.94566773 2.81587733,6.08186483 3.85073759,6.00551573 L4,6.00003 L9.10143,6.00003 Z M11.1425,6.48553 C11.4267,6.01195 12.0409,5.85839 12.5145,6.14254 C12.9542714,6.40638429 13.1180383,6.95487286 12.9117234,7.41105688 L12.8575,7.51452 L10.7662,11 L12.9823,11 C13.728145,11 14.2030595,11.7729913 13.9023926,12.4274752 L13.8484,12.5297 L10.8575,17.5145 C10.5733,17.9881 9.95908,18.1417 9.4855,17.8575 C9.04574714,17.5936929 8.8819299,17.0451724 9.08827747,16.5889677 L9.14251,16.4855 L11.2338,13 L9.01766,13 C8.271853,13 7.79692235,12.227099 8.09759614,11.5726241 L8.15159,11.4704 L11.1425,6.48553 Z" id="形状" fill="#09244B"></path>
            </g>
        </g>
    </g>
</svg>

<svg xmlns="http://www.w3.org/2000/svg" width="24" height="24"><g fill="none" fill-rule="nonzero"><path d="M24 0v24H0V0h24ZM12.593 23.258l-.011.002-.071.035-.02.004-.014-.004-.071-.035c-.01-.004-.019-.001-.024.005l-.004.01-.017.428.005.02.01.013.104.074.015.004.012-.004.104-.074.012-.016.004-.017-.017-.427c-.002-.01-.009-.017-.017-.018Zm.265-.113-.013.002-.185.093-.01.01-.003.011.018.43.005.012.008.007.201.093c.012.004.023 0 .029-.008l.004-.014-.034-.614c-.003-.012-.01-.02-.02-.022Zm-.715.002a.023.023 0 0 0-.027.006l-.006.014-.034.614c0 .012.007.02.017.024l.015-.002.201-.093.01-.008.004-.011.017-.43-.003-.012-.01-.01-.184-.092Z"/><path fill="#09244B" d="M18 6a2 2 0 0 1 2 2v1a2 2 0 0 1 2 2v2a2 2 0 0 1-2 2v1a2 2 0 0 1-2 2h-5.101l2.664-4.441c.986-1.642.197-3.65-1.405-4.325l.415-.69c.478-.799.543-1.73.255-2.544H18ZM9.101 6l-2.664 4.441c-.953 1.587-.247 3.516 1.247 4.253l.158.072-.414.69a2.992 2.992 0 0 0-.317 2.354l.06.19H4a2 2 0 0 1-1.995-1.85L2 16V8a2 2 0 0 1 1.85-1.994L4 6h5.101Zm2.041.486a1 1 0 0 1 1.77.925l-.055.104L10.768 11h2.215c.746 0 1.221.773.92 1.427l-.054.103-2.99 4.985a1 1 0 0 1-1.77-.926l.055-.104L11.233 13H9.019a1.01 1.01 0 0 1-.92-1.427l.054-.103 2.99-4.984Z"/></g></svg>
